icons/walk.svg

<svg width="24" height="24" viewBox="0 0 24 24" fill="none" xmlns="http://www.w3.org/2000/svg">
<path fill-rule="evenodd" clip-rule="evenodd" d="M11 4C11 2.89543 11.8954 2 13 2C14.1046 2 15 2.89543 15 4C15 5.10457 14.1046 6 13 6C11.8954 6 11 5.10457 11 4ZM11.7575 7.02986C12.0982 6.94466 12.4587 7.04451 12.7071 7.29289L15.5402 10.126L18.3162 11.0513C18.8402 11.226 19.1233 11.7923 18.9487 12.3162C18.774 12.8402 18.2077 13.1233 17.6838 12.9487L14.6838 11.9487C14.5365 11.8996 14.4027 11.8169 14.2929 11.7071L12.6669 10.0811L12.071 13.6568L14.7071 16.2929C14.7831 16.3689 14.8464 16.4567 14.8944 16.5528L16.8944 20.5528C17.1414 21.0468 16.9412 21.6474 16.4472 21.8944C15.9532 22.1414 15.3526 21.9412 15.1056 21.4472L13.1781 17.5924L10.2929 14.7071C10.0645 14.4787 9.96051 14.1542 10.0136 13.8356L10.7629 9.34006L8.6176 9.87638L6.83205 12.5547C6.5257 13.0142 5.90483 13.1384 5.4453 12.8321C4.98577 12.5257 4.8616 11.9048 5.16795 11.4453L7.16795 8.4453C7.30594 8.23831 7.51613 8.09019 7.75746 8.02986L11.7575 7.02986ZM10.6 16.2C11.0418 16.5314 11.1314 17.1582 10.8 17.6L7.8 21.6C7.46863 22.0418 6.84183 22.1314 6.4 21.8C5.95817 21.4686 5.86863 20.8418 6.2 20.4L9.2 16.4C9.53137 15.9582 10.1582 15.8686 10.6 16.2Z" fill="black"/>
</svg>

<svg
  width="24"
  height="24"
  viewBox="0 0 24 24"
  xmlns="http://www.w3.org/2000/svg"
>
  <path
    fill-rule="evenodd"
    clip-rule="evenodd"
    d="M11 4a2 2 0 1 1 4 0 2 2 0 0 1-4 0zm.758 3.03a1 1 0 0 1 .95.263l2.832 2.833 2.776.925a1 1 0 0 1-.632 1.898l-3-1a1 1 0 0 1-.391-.242l-1.626-1.626-.596 3.576 2.636 2.636c.076.076.14.164.187.26l2 4a1 1 0 1 1-1.788.894l-1.928-3.855-2.885-2.885a1 1 0 0 1-.28-.871l.75-4.496-2.145.536-1.786 2.679a1 1 0 0 1-1.664-1.11l2-3a1 1 0 0 1 .59-.415l4-1zM10.6 16.2a1 1 0 0 1 .2 1.4l-3 4a1 1 0 1 1-1.6-1.2l3-4a1 1 0 0 1 1.4-.2z"
  />
</svg>
